X: 34442
T: Ricky's
R: hornpipe
M: 4/4
K: Dmajor
A2 A>B A2 (3FGA|d>cB>A F2 A2|B>^AB>A G2 B2|A>B (3AGF E2 D>F|
A>^GA>B A>=GF>A|d2 (3cBA (3FFF A2|B>dA>d G>eF>d|E>G (3GFE D2:|
e>^de>f (3efe (3cde|f>^ef>g (3fgf (3def|g>be>g f>ad>f|g2 (3fed e2 (3Bcd|
e2 e>f e>cd>e|f2 fg f3 d|1 B2 A>d G2 F>d|e>g (3gfe d2:|
2 (3Bcd A>d G>e (3FED|E>G (3GFE D2||

